dist/img/heart.svg

<svg width="20" height="18" viewBox="0 0 20 18" fill="none" xmlns="http://www.w3.org/2000/svg">
<path d="M9.16219 17.6442C9.62641 18.1186 10.3787 18.1186 10.8426 17.6442L18.3257 9.99316C20.5581 7.71071 20.5581 3.99697 18.3257 1.71452C17.2442 0.608844 15.8064 -8.09876e-05 14.2769 8.07913e-09C12.7474 8.10037e-05 11.3096 0.609169 10.2283 1.715L10.0023 1.94616L9.77542 1.71419C7.54321 -0.568184 3.91091 -0.568266 1.67823 1.71443C-0.559279 4.00216 -0.559596 7.70528 1.67839 9.99324L9.16219 17.6442ZM5.7269 2.42938C6.62143 2.42938 7.46241 2.78552 8.09497 3.43227L9.16227 4.52345C9.62609 4.99759 10.3788 4.99776 10.8429 4.52337L11.909 3.433C12.5415 2.78617 13.3825 2.42987 14.2771 2.42987C17.2384 2.42963 18.7564 6.11663 16.6454 8.27508L10.0025 15.067L3.359 8.275C1.26994 6.13947 2.73048 2.42938 5.7269 2.42938Z" fill="#262626"/>
</svg>

<svg width="20" height="18" fill="none" xmlns="http://www.w3.org/2000/svg"><path d="M9.162 17.644a1.17 1.17 0 001.68 0l7.484-7.65c2.232-2.283 2.232-5.997 0-8.28A5.626 5.626 0 0014.276 0c-1.529 0-2.966.61-4.048 1.715l-.226.231-.227-.232a5.643 5.643 0 00-8.097 0c-2.237 2.288-2.238 5.991 0 8.28l7.484 7.65zM5.727 2.43a3.29 3.29 0 012.368 1.003l1.067 1.091a1.17 1.17 0 001.68 0l1.067-1.09a3.29 3.29 0 012.368-1.003c2.961 0 4.48 3.687 2.368 5.845l-6.643 6.792L3.36 8.275c-2.09-2.136-.629-5.846 2.368-5.846z" fill="#262626"/></svg>
